X:3863
T:Ma Hurraman. a Reel.
O:england
S:Alexander Mackay, A collection of Reels...
B:NLS Glen.344
N:Mc16 in Gore's Scottish Fiddle Music Index
N:Gore guesses 1802, a note (by Murdoch Henderson?)
N:on the titlepage says there's an 1832 watermark.
M:C|
L:1/8
K:G
G2Gg BGGg|dBBg   d2    (dB)|G2Gg dBBg|eAAB c2(BA):|
G2Gg ecdB|G2(GB) d/d/d (dB)|G2Gg ecdB|eAAB c2(BA):|
gdBg dgBa|gdBd   gbaf      |gdBg dgBg|eAAB c2 Ac :|
BGBd ecdc|BGBc   dedc      |BGBd ecdB|eAAB c2 Ac :|


